X: 1
T: Bour\'ee de Bourdeilles   [Am]
R: bour\'ee 2T
S: NEFFA 2019 French Jam handout p.5 #2, transcription by Claire Goujon
Z: 2019 John Chambers <jc:trillian.mit.edu>
M: 2/4
L: 1/8
K: Am
"^A"|:\
"Am"A>B cd | e4 | "C"g2 ed | "E"e>d cB |\
"Am"A>B cd | e4 | "C"g2 ed | "E"e4 :|
"^B"|:\
"Dm"f>e dc | "G"B>c d"Dm"f | "C"ed "E"cB | "Am"c2 A2 |\
"Dm"f>e dc | "G"B>c d"Dm"f | "C"ed "E"cB | "Am"A4 :|
